icons/folder-job.svg

<svg xmlns="http://www.w3.org/2000/svg" viewBox="0 0 16 16"><path id="folder" fill="#ffa000" d="m6.922 3.768-.644-.536A1 1 0 0 0 5.638 3H2a1 1 0 0 0-1 1v8a1 1 0 0 0 1 1h12a1 1 0 0 0 1-1V5a1 1 0 0 0-1-1H7.562a1 1 0 0 1-.64-.232"/><path id="motive" fill="#ffecb3" d="M15 7h-2V6l-1-1h-2L9 6v1H7a1 1 0 0 0-1 1v5a1 1 0 0 0 1 1h8a1 1 0 0 0 1-1V8a1 1 0 0 0-1-1m-5-1h2v1h-2zm3 5-3.511 2-.508-.862 2.78-1.636-2.78-1.634.508-.862L13 10Z"/></svg>

<svg xmlns="http://www.w3.org/2000/svg" viewBox="0 0 16 16">
<path id="folder" fill="#ffa000" d="m6.922 3.768-.644-.536A1 1 0 0 0 5.638 3H2a1 1 0 0 0-1 1v8a1 1 0 0 0 1 1h12a1 1 0 0 0 1-1V5a1 1 0 0 0-1-1H7.562a1 1 0 0 1-.64-.232" />
<path id="motive" fill="#ffecb3" d="M 15,7 H 13 V 6 L 12,5 H 10 L 9,6 V 7 H 7 A 1,1 0 0 0 6,8 v 5 a 1,1 0 0 0 1,1 h 8 a 1,1 0 0 0 1,-1 V 8 A 1,1 0 0 0 15,7 M 10,6 h 2 v 1 h -2 z m 3,5 -3.5115,2 -0.507,-0.8625 2.779,-1.635 L 8.9815,8.868 9.4885,8.006 13,10 Z" />
</svg>
